X:2259 
T:Loss of the herring fleet 
C:Traditional
O:Isle of Man
S:E Corteen 
Z:Clague collection
B:Kiaull Vannin #259 
N:See also KV 224,244,274,284,391,392.
L:1/4
M:3/4 
Q:100 
K:D 
D/E/|F A A|A2 B/c/|d c B|A2 F|A d d/c/|B c A|B !fermata!A A/G/| 
F F A|E2 F/E/|D D F|G2 F/G/|A !fermata!d A|B !fermata!F D|{F}E !fermata!D|| 

